X:1
T:Blackbird (The)
L:1/8
Q:1/8=100
M:4/4
I:linebreak $
K:Emin
V:1 treble 
V:1
 GA/B/ | c>d cB/A/ B>A Bc/d/ | e2 dB A>GE>F | G2 g>f edBG | AGEE E3 :| f |$ gfga{a} b2 ag | %7
 a>gab ag e>f | gfga{a} b2 ag | agee e2 ga | ba ga/b/ a2 ge |$ dBde gaga/b/ | %12
 Bd c/B/A/G/ A>B e/d/B/G/ | AGEE E3 :| %14
